packages/kaspersky-hexa-ui-icons/src/iconsSVGs/16/Yandex2.svg

<svg width="16" height="16" viewBox="0 0 16 16" fill="none" xmlns="http://www.w3.org/2000/svg">
<path fill-rule="evenodd" clip-rule="evenodd" d="M8 15C11.866 15 15 11.866 15 8C15 4.13401 11.866 1 8 1C4.13401 1 1 4.13401 1 8C1 11.866 4.13401 15 8 15ZM8.8713 11.1088C8.8713 9.98733 8.72924 9.66256 8.30296 8.72887L6.06514 3.84217H4.47686L7.34897 10.0888V12.5956H8.8713V11.1088ZM8.31821 8.07428L10.1805 3.84217H11.7333L9.86591 8.07428H8.31821Z" fill="black"/>
</svg>

<svg xmlns="http://www.w3.org/2000/svg" width="16" height="16" fill="none" viewBox="0 0 16 16"><path fill="#000" fill-rule="evenodd" d="M8 15c3.866 0 7-3.134 7-7s-3.134-7-7-7-7 3.134-7 7 3.134 7 7 7m.8713-3.8912c0-1.1215-.142-1.4462-.5683-2.38L6.065 3.8423H4.477l2.872 6.2466v2.5068h1.5224zm-.553-3.0345 1.8622-4.2321h1.5528l-1.8674 4.232z" clip-rule="evenodd"/></svg>
